X:1
T:Amanti a consiglio
T:Amanti a consiglio
T:Loreto Vittori
T:Source : Arie a voce sola del Cavalier Loreto Vittorii---Venetia---A.Vincenti---1649. Editor : André Vierendeels (17/10/15).
T:Notes : Original clefs : C1, F4 Figures in BC are notated in original print
C:Vittorius Loreto
%%score 1 2
L:1/8
Q:1/4=77
M:6/4
K:C
V:1 treble nm="Soprano" snm="S"
V:2 bass nm="BC" snm="BC"
V:1
 z4 G2 d2 d2 d2 | d2 G2 z2 z4 c2 |"^6" g2 g2 g2 g2 c2 z2 | z8 z2 e2 | d3 c B2 c2 A2 c2 | %5
w: A- man- ti'a con-|si- glio, a-|man- ti'a con si- glio|se|per- fi- do'an- ci- de se|
w: A- man- ti'a con|si- glio, a-|man- ti'a con- si- glio|d'al-|te- ra bel- lez- za, che|
 B2 A2 G2 A2 A2 G2 | F2 F2 E2 E2 E2 G2 | c2 c2 c2 c4 B2 | c6 z4 G2 | d2 c2 B2 A6 |[M:3/4] G6 :: %11
w: l'al- ma di- vi- de, sprez-|za- te un- bel vol- to,|fug- git' un bel ci-|glio, fug-|git' un bel ci-|glio,|
w: fe- de non pez- za, schi-|ma- te l'in- gan- no fug-|git' il pe- ri- *|glio, fug-|git' il pe- ri-|glio,|
[M:6/4] z4 B2 A4 GA | ^F4 E2 F2 F2 G2 | A2 A2 B2 c2 B2 A2 | G2 A3 B G2 ^F3 G | E4 B2 d2 d2 z c | %16
w: chi bel- la non|è, a- vien' che si|van- te d'ha- ver un a-|man- te che d'a- mi con|fe lo mi- ra, l'al-|
w: Per va- ga bel-|ta, chi vi- v'in tor-|men- ti, tra do- gli'e tra|sten- ti, a mor- te ne|va, e re- sta del|
 e2 e3 e f2 fd ef | e2 e2 f2 g2 f3 e | d2 d2 e2 c2 d2 e2 | c2 B4 A4 c2 | B2 B2 B2 A2 B2 c2 | %21
w: let- ta con gio- a _ in _|fi- ni- ta a mar quel-|le bel- le n'e pe- na|la vi- ta, n'e|pe- na la vi- ta, la|
w: em- pia sua fe- de _ _ _|scher- ni- ta, a- mar quel-|le bel- le n'e pe- na|la vi- ta, n'e|pe- na la vi- ta, la|
 A6 !fermata!G6 :| %22
w: vi- ta.|
w: vi- ta.|
V:2
 G,,6 G,2 ^F,4 | G,3 !courtesy!=F, E,D, C,4 C2 | B,6 C3 B, A,G, |"^4  3" F,2 G,4 C,4 C2 | %4
 B,3 A, G,2 A,6 | G,2 F,2 E,2 F,4 E,2 |"^4   6" D,6 C,4 B,,2 |"^6""^4   3" A,,2 E,,2 F,,2 G,,6 | %8
 C,3 D, E,F, G,4 G,,2 | B,,2 C,4 D,6 |[M:3/4] G,,6 ::[M:6/4] G,6 A,6 | B,4 C2 B,6 | A,6- A,2 B,4 | %14
"^4   3" C2 A,4 B,2 A,,4 |"^6" E,6 B,,6 | C,6- C,2 B,,4 | C,4 D,2 E,2 F,4 | G,4 E,2 F,2 D,4 | %19
"^4   3" E,6 A,,6 |"^6" B,,6 C,6 |"^4   3" D,6 !fermata!G,,6 :| %22

